!!!COM:	la Rue, Pierre de
!!!CDT:	~1452///-1518/11/20
!!!OPR:	Missa Pascale
!!!ONM:	5
!!!OTL:	Agnus Dei
!!!AGN:	Mass; Agnus Dei
!!!SCT:	Rue1023e
!!!SCA:	Rue1023e
!!!voices-OPR:	5
!!!voices:	5
**kern	**kern	**kern	**kern	**kern
*Ivox	*Ivox	*Ivox	*Ivox	*Ivox
*I"Bassus	*I"Tenor2	*I"Tenor	*I"Contra	*I"Discantus
*I'B	*I'T2	*I'T	*I'C	*I'D
*staff5	*staff4	*staff3	*staff2	*staff1
*>[A,B]	*>[A,B]	*>[A,B]	*>[A,B]	*>[A,B]
*>A	*>A	*>A	*>A	*>A
*clefF4	*clefGv2	*clefGv2	*clefGv2	*clefG2
*k[]	*k[]	*k[]	*k[]	*k[]
*M3/1	*M3/1	*M3/1	*M3/1	*M3/1
*met(O)	*met(O)	*met(O)	*met(O)	*met(O)
!!section: Agnus Dei I
!!!OMD: Agnus Dei I
=1-	=1-	=1-	=1-	=1-
0.r	0.G	0.r	0.r	0g
.	.	.	.	[1b
=2	=2	=2	=2	=2
0.r	0.B	0.r	0.r	1b]
.	.	.	.	0dd
=3	=3	=3	=3	=3
0D	0.d	0.r	0.A	0a
[1F	.	.	.	2r
.	.	.	.	2a/
=4	=4	=4	=4	=4
1F]	0A	0.r	0.c	2a/
.	.	.	.	1a
0A	.	.	.	.
.	.	.	.	4g/
.	.	.	.	4f/
.	1c	.	.	2e/
.	.	.	.	2a/
=5	=5	=5	=5	=5
0.E	0.B	[0.G	0e	2g/
.	.	.	.	2e/
.	.	.	.	0g
.	.	.	1e	.
=6	=6	=6	=6	=6
1r	0.r	0.G]	2B\	2g/
.	.	.	2e\	1g
1r	.	.	2d\	.
.	.	.	2.c\	4f/
.	.	.	.	4e/
1G	.	.	.	2d/
.	.	.	4B\	.
.	.	.	2B\	4e/
.	.	.	.	4d/
=7	=7	=7	=7	=7
0C	1G	0c	1c	1e
.	2G/	.	1e	2r
.	2.A/	.	.	2e/
1D	.	1A	1d	2.f/
.	4G/	.	.	.
.	2F/	.	.	.
.	.	.	.	4g/
=8	=8	=8	=8	=8
0AA	1E	0A	0.c	2a/
.	.	.	.	2b\
.	2E/	.	.	0cc
.	2.F/	.	.	.
1FF	.	1A	.	.
.	4G/	.	.	.
.	2A/	.	.	.
=9	=9	=9	=9	=9
1GG	2D/	2.G/	1r	1b
.	1G	.	.	.
.	.	4A/	.	.
1GG	.	2B\	1r	2b\
.	4F/	1c	.	2.g/
.	4E/	.	.	.
1GG	1D	.	1g	.
.	.	.	.	4a/
.	.	2B\	.	2b\
=10	=10	=10	=10	=10
2AA/	1C	2.c\	2e\	2a/
2FF/	.	.	2f\	2cc\
.	.	4B\	.	.
1GG	1r	2G/	2d\	2b\
.	.	2B\	2.d\	1g
1D	1r	1A	.	.
.	.	.	4c\	.
.	.	.	4B\	2f#i/
.	.	.	4A/	.
=11	=11	=11	=11	=11
2GG/	1r	1G	1B	1g
2G\	.	.	.	.
2A\	1r	1r	2e\	1r
2F\	.	.	2f\	.
2.G\	2r	1r	2d\	1r
.	2G/	.	[2e\	.
4E\	.	.	.	.
=12	=12	=12	=12	=12
2F\	2A/	0.r	4e\]	1r
.	.	.	4c\	.
2D\	2F/	.	2d\	.
2.E\	2.G/	.	2B\	1r
.	.	.	2.c\	.
4C/	4E/	.	.	.
2D\	2F/	.	.	2r
.	.	.	4A/	.
2BB/	2D/	.	2B\	2d/
=13	=13	=13	=13	=13
2.C/	2G/	0.r	2G/	2e/
.	2.E/	.	2.A/	2c/
4AA/	.	.	.	.
2BB/	.	.	.	2.d/
.	4D/	.	4G/	.
2GG/	1D	.	1G	.
.	.	.	.	4B/
1AA	.	.	.	2c/
.	2C/	.	2F#i/	2A/
=14	=14	=14	=14	=14
[0.GG	0D	[0.B	1G	2B/
.	.	.	.	2b\
.	.	.	2r	2b\
.	.	.	2d\	2b\
.	2r	.	2d\	2g/
.	2G/	.	[2d\	[2b\
=15	=15	=15	=15	=15
0GG]	2G/	0B]	4d\]	2b\]
.	.	.	4G/	.
.	2G/	.	2G/	1dd
.	2D/	.	2d\	.
.	2G/	.	2e\	4cc\
.	.	.	.	4b\
1r	1A	1c	1f	2a/
.	.	.	.	4b\
.	.	.	.	4a/
=16	=16	=16	=16	=16
0.r	2G/	0d	2g\	1b
.	2.B\	.	4f\	.
.	.	.	4e\	.
.	.	.	2d\	2r
.	4G/	.	.	.
.	2B\	.	1g	2b\
.	1A	2e\	.	1cc
.	.	2c\	2f\	.
=17	=17	=17	=17	=17
0.r	0G	1d	2g\	2b\
.	.	.	4f\	2.dd\
.	.	.	4e\	.
.	.	2r	1d	.
.	.	.	.	4cc\
.	.	2d\	.	4a/
.	.	.	.	4b\
.	2r	2.e\	1c	2.cc\
.	2A/	.	.	.
.	.	4c\	.	4b\
=18	=18	=18	=18	=18
0.r	2F/	2d\	0.r	4a/
.	.	.	.	4g/
.	2.r	2B\	.	2.b\
.	.	2c\	.	.
.	4A/	.	.	4a/
.	2F/	2A/	.	1a
.	1E	1B	.	.
.	.	.	.	2g#i/
=19	=19	=19	=19	=19
0D	0F	1A	0f	1a
.	.	2B\	.	1r
.	.	1A	.	.
1D	1F	.	1f	1r
.	.	[2d\	.	.
=20	=20	=20	=20	=20
1F	1D	4d\]	1f	0.r
.	.	4c\	.	.
.	.	4B\	.	.
.	.	4A/	.	.
2E\	2E/	2G/	2g\	.
2C/	1G	1c	2e\	.
1D	.	.	1f	.
.	2F/	2B\	.	.
=21	=21	=21	=21	=21
2.C/	2G/	0c	1.e	0.r
.	2.c\	.	.	.
4D\	.	.	.	.
4E\	.	.	.	.
4C/	4B\	.	.	.
1F	2A/	.	2c\	.
.	1G	1r	2d\	.
2E\	.	.	2e\	.
=22	=22	=22	=22	=22
1F	2A/	0c	2A/	1r
.	1A	.	4c\	.
.	.	.	4d\	.
0C	.	.	4e\	1r
.	.	.	4c\	.
.	4G/	.	1f	.
.	4F/	.	.	.
.	1G	1c	.	1g
.	.	.	2e\	.
=23	=23	=23	=23	=23
2.FF/	2F/	0c	0f	0a
.	1F	.	.	.
4GG/	.	.	.	.
2AA/	.	.	.	.
2FF/	4E/	.	.	.
.	4D/	.	.	.
1C	1E	1c	1r	1g
=24	=24	=24	=24	=24
2.FF/	0F	1c	2r	2a/
.	.	.	2f\	2cc\
4GG/	.	.	.	.
2AA/	.	2r	2f\	2.cc\
2FF/	.	2c\	2f\	.
.	.	.	.	4b\
1C	2r	2.c\	[1e	2a/
.	[2C/	.	.	2g/
.	.	4B\	.	.
=25	=25	=25	=25	=25
0C	4C/]	2A/	1e]	0cc
.	4D/	.	.	.
.	4E/	2G/	.	.
.	4F/	.	.	.
.	2G/	4c\	1e	.
.	.	4B\	.	.
.	2E/	4A/	.	.
.	.	4G/	.	.
1FF	1F	1A	1c	1cc
=26	=26	=26	=26	=26
1.GG	1.D	0G	2r	0b
.	.	.	2g\	.
.	.	.	2g\	.
2GG/	2E/	.	2g\	.
1C	[1E	2r	2e\	1g
.	.	2G/	2c\	.
=27	=27	=27	=27	=27
1C	1E]	0c	1.e	2a/
.	.	.	.	2g/
2AA/	1C	.	.	2cc\
2FF/	.	.	2f\	2.cc\
1GG	1r	1G	1d	.
.	.	.	.	4b\
.	.	.	.	2b\
=28	=28	=28	=28	=28
1r	1r	0A	0c	0cc
1FF	1F	.	.	.
2AA/	2E/	2c\	1r	1r
2BB/	2D/	[2d\	.	.
=29	=29	=29	=29	=29
2C/	2G/	4d\]	0.r	1r
.	.	4c\	.	.
2.D\	2.F/	4B\	.	.
.	.	4A/	.	.
.	.	2B\	.	1r
4C/	4E/	.	.	.
4BB/	1E	1A	.	.
4AA/	.	.	.	.
1BB	.	.	.	1dd
.	2D/	2G#i/	.	.
=30	=30	=30	=30	=30
1AA	2.E/	1A	2.e\	2.cc\
.	4F/	.	4d\	4b\
1r	2G/	1r	2d\	2b\
.	2C/	.	1c	1a
1r	1D	1r	.	.
.	.	.	2B\	4g/
.	.	.	.	4f/
=31	=31	=31	=31	=31
2.C/	0.r	2r	1c	1e
.	.	2.G/	.	.
4D\	.	.	.	.
4E\	.	.	1r	1r
4F\	.	4A/	.	.
2D\	.	2B\	.	.
1C	.	1c	2r	2r
.	.	.	2G/	2g/
=32	=32	=32	=32	=32
1r	1r	1r	2A/	2f/
.	.	.	2B\	4e/
.	.	.	.	4d/
2C/	2r	2.G/	1c	1e
2E\	2G/	.	.	.
.	.	4A/	.	.
1D	2A/	4B\	1r	1r
.	.	4c\	.	.
.	2F/	4d\	.	.
.	.	4B\	.	.
=33	=33	=33	=33	=33
1C	1G	1c	2r	2r
.	.	.	2G/	2e/
1r	1r	1r	2A/	2f/
.	.	.	2B\	2g/
1r	1r	1r	2c\	2a/
.	.	.	2d\	4g/
.	.	.	.	4f/
=34	=34	=34	=34	=34
0C	0G	0c	0e	2e/
.	.	.	.	1g
.	.	.	.	2g/
1FF	1F	1A	1r	2a/
.	.	.	.	[2cc\
=35	=35	=35	=35	=35
2.C/	2E/	2.G/	2.e\	4cc\]
.	.	.	.	4b\
.	1C	.	.	2g/
4BB/	.	4E/	4d\	.
2AA/	.	2F/	2c\	2a/
2GG/	1D	1G	2B\	2b\
1AA	.	.	1A	1cc
.	2C/	2F#i/	.	.
=36	=36	=36	=36	=36
2.GG/	1D	1.G	1B	4b\
.	.	.	.	4g/
.	.	.	.	4b\
4AA/	.	.	.	4cc\
2BB/	2D/	.	2r	4dd\
.	.	.	.	4b\
2.AA/	1E	2.A/	1e	2.cc\
4BB/	.	4G/	.	4b\
2C/	2E/	2E/	2e\	4a/
.	.	.	.	4g/
=37	=37	=37	=37	=37
2.D\	1D	2.F/	1A	4f/
.	.	.	.	4e/
.	.	.	.	1a
4E\	.	4G/	.	.
4F\	1r	2A/	1d	.
4D\	.	.	.	.
2G\	.	2B\	.	2.g/
1D	1D	1A	1d	.
.	.	.	.	4f#i/
.	.	.	.	2f#i/
=38	=38	=38	=38	=38
0.GGl	0.Dl	0.Gl	0.Bl	0.gl
!!LO:LB:i:g=z
=39||	=39||	=39||	=39||	=39||
*>B	*>B	*>B	*>B	*>B
*clefF4	*clefGv2	*clefGv2	*clefGv2	*clefG2
*k[]	*k[]	*k[]	*k[]	*k[]
*M2/1	*M2/1	*M2/1	*M2/1	*M2/1
*met(C2)	*met(C2)	*met(C2)	*met(C2)	*met(C2)
!!section: Agnus Dei II
!!!OMD: Agnus Dei II
0r	0r	0r	1d	0r
.	.	.	2d\	.
.	.	.	[2e\	.
=40.	=40.	=40.	=40.	=40.
0r	1r	0r	2e\]	0r
.	.	.	4d\	.
.	.	.	4c\	.
.	1G	.	1B	.
=41	=41	=41	=41	=41
0r	2G/	0r	2B\	0r
.	1A	.	1c	.
.	4G/	.	4B\	.
.	4F/	.	4A/	.
=42.	=42.	=42.	=42.	=42.
0r	1E	0r	1G	1g
.	2E/	.	1r	2g/
.	[2F/	.	.	[2a/
=43	=43	=43	=43	=43
0r	2F/]	0c	1r	2a/]
.	4E/	.	.	4g/
.	4D/	.	.	4f/
.	[1C	.	1G	1e
=44.	=44.	=44.	=44.	=44.
1r	1C]	0c	2G/	1r
.	.	.	1A	.
1C	1r	.	.	1e
.	.	.	4G/	.
.	.	.	4F/	.
=45	=45	=45	=45	=45
2C/	0r	0A	2E/	2e/
1D	.	.	2.A/	1f
.	.	.	4B\	.
4C/	.	.	4c\	4e/
4BB/	.	.	4d\	4d/
=46.	=46.	=46.	=46.	=46.
2AA/	0r	[0c	1e	2c/
2E\	.	.	.	2g/
2E\	.	.	2r	2g/
[2F\	.	.	[2A/	[2a/
=47	=47	=47	=47	=47
2F\]	0r	0c]	4A/]	2a/]
.	.	.	4B\	.
4E\	.	.	4c\	4g/
4D\	.	.	4d\	4f/
1C	.	.	2e\	2e/
.	.	.	2c\	2f/
=48.	=48.	=48.	=48.	=48.
[0GG	1r	0B	[0d	1g
.	1G	.	.	2g/
.	.	.	.	[2b\
=49	=49	=49	=49	=49
0GG_	2.G/	[0G	0d]	4b\]
.	.	.	.	4cc\
.	.	.	.	1dd
.	4A/	.	.	.
.	4B\	.	.	.
.	4G/	.	.	.
.	4B\	.	.	[2g/
.	4c\	.	.	.
=50.	=50.	=50.	=50.	=50.
0GG]	2d\	0G]	1r	2g/]
.	1c	.	.	4f/
.	.	.	.	4e/
.	.	.	1d	2d/
.	2B\	.	.	2g/
=51	=51	=51	=51	=51
0r	1c	0r	2.e\	2.g/
.	.	.	4f\	4a/
.	2.G/	.	4g\	4b\
.	.	.	4e\	4g/
.	.	.	[2g\	4b\
.	4A/	.	.	4cc\
=52.	=52.	=52.	=52.	=52.
1r	2B\	0r	2g\]	2dd\
.	2c\	.	4f\	1cc
.	.	.	4e\	.
1G	1G	.	1d	.
.	.	.	.	2b\
=53	=53	=53	=53	=53
2.C/	0G	0r	0c	1cc
4D\	.	.	.	.
4E\	.	.	.	2.g/
4C/	.	.	.	.
4E\	.	.	.	.
4F\	.	.	.	4a/
=54.	=54.	=54.	=54.	=54.
2G\	1r	0r	1r	2b\
1F	.	.	.	2cc\
.	1G	.	1c	1g
2E\	.	.	.	.
=55	=55	=55	=55	=55
1F	2F/	0c	2.c\	0r
.	2A/	.	.	.
.	.	.	4d\	.
2.C/	2G/	.	4e\	.
.	.	.	4c\	.
.	[2c\	.	4e\	.
4D\	.	.	4f\	.
=56.	=56.	=56.	=56.	=56.
2E\	4c\]	0c	2g\	1r
.	4B\	.	.	.
2F\	2A/	.	1f	.
1C	1G	.	.	1cc
.	.	.	2e\	.
=57	=57	=57	=57	=57
1r	1F	0A	1f	1cc
1C	1r	.	1r	1cc
=58.	=58.	=58.	=58.	=58.
1C	1G	[0c	1e	1cc
1C	1G	.	1e	1cc
=59	=59	=59	=59	=59
1C	0G	0c]	0e	1g
1C	.	.	.	2g/
.	.	.	.	[2g/
=60.	=60.	=60.	=60.	=60.
1GG	1G	0B	2d\	2g/]
.	.	.	1g	4f/
.	.	.	.	4e/
1GG	2G/	.	.	1d
.	[2G/	.	4f\	.
.	.	.	4e\	.
=61	=61	=61	=61	=61
2.GG/	2G/]	[0G	1d	1r
.	4F/	.	.	.
4AA/	4E/	.	.	.
2BB/	2D/	.	2d\	1g
[2C/	2C/	.	[2e\	.
=62.	=62.	=62.	=62.	=62.
2C/]	1D	0G]	2e\]	1g
2BB/	.	.	2d\	.
2C/	2r	.	2e\	1g
2GG/	2D/	.	2d\	.
=63	=63	=63	=63	=63
1C	2E/	0r	2.c\	2.e/
.	2A/	.	.	.
.	.	.	4d\	4f/
2C/	2G/	.	2e\	2g/
[2F\	2F/	.	2f\	[2a/
=64.	=64.	=64.	=64.	=64.
2F\]	2A/	0r	1c	2a/]
2E\	1c	.	.	2g/
2F\	.	.	2r	2a/
2C/	2c\	.	2g\	2cc\
=65	=65	=65	=65	=65
1G	0d	0r	1.g	2b\
.	.	.	.	2.dd\
1G	.	.	.	.
.	.	.	.	4cc\
.	.	.	4f\	[2b\
.	.	.	4e\	.
=66.	=66.	=66.	=66.	=66.
1A	2.c\	0r	1e	2b\]
.	.	.	.	2.a/
.	4A/	.	.	.
1E	1B	.	1e	.
.	.	.	.	4g#i/
.	.	.	.	2g#i/
=67	=67	=67	=67	=67
[0AA	[0A	0c	2f\	[0a
.	.	.	2e\	.
.	.	.	2c\	.
.	.	.	[2f\	.
=68.	=68.	=68.	=68.	=68.
0AA]	0A]	0c	2f\]	0a]
.	.	.	4e\	.
.	.	.	4d\	.
.	.	.	4e\	.
.	.	.	4c\	.
.	.	.	2e\	.
=69	=69	=69	=69	=69
0D	0F	0A	4f\	0r
.	.	.	4e\	.
.	.	.	4d\	.
.	.	.	4c\	.
.	.	.	1d	.
=70.	=70.	=70.	=70.	=70.
[0AA	0E	[0c	0e	1r
.	.	.	.	1a
=71	=71	=71	=71	=71
0AA]	1E	0c]	1e	1a
.	1A	.	1c	1e
=72.	=72.	=72.	=72.	=72.
0r	0G	0B	2d\	1g
.	.	.	1e	.
.	.	.	.	2e/
.	.	.	4d\	[2g/
.	.	.	4c\	.
=73	=73	=73	=73	=73
0r	0r	[0G	2B\	2g/]
.	.	.	2G/	4f/
.	.	.	.	4e/
.	.	.	2.B\	2d/
.	.	.	.	2g/
.	.	.	4c\	.
=74.	=74.	=74.	=74.	=74.
2r	0r	0G]	0d	2.b\
2GG/	.	.	.	.
.	.	.	.	4cc\
2.BB/	.	.	.	2dd\
.	.	.	.	2d/
4C/	.	.	.	.
=75	=75	=75	=75	=75
0D	1r	2r	0d	2.f/
.	.	2D/	.	.
.	.	.	.	4g/
.	2r	2.F/	.	2a/
.	2D/	.	.	2b\
.	.	4G/	.	.
=76.	=76.	=76.	=76.	=76.
0r	2.F/	2A/	2r	2cc\
.	.	2B\	2d\	2dd\
.	4G/	.	.	.
.	2A/	2c\	2e\	2a/
.	2D/	2d\	[2d\	[2dd\
=77	=77	=77	=77	=77
0r	2d\	1G	2d\]	2dd\]
.	1d	.	2.g\	2b\
.	.	1A	.	1cc
.	.	.	4f#i\	.
.	2c\	.	2f#i\	.
=78.	=78.	=78.	=78.	=78.
2r	[0d	0G	1g	0b
2GG/	.	.	.	.
2.BB/	.	.	2r	.
.	.	.	2G/	.
4C/	.	.	.	.
=79	=79	=79	=79	=79
0D	0d]	2r	2.B\	1r
.	.	2D/	.	.
.	.	.	4c\	.
.	.	2.F/	2d\	2r
.	.	.	4c\	2d/
.	.	4G/	4B\	.
=80.	=80.	=80.	=80.	=80.
0D	2r	2A/	2A/	2.f/
.	2D/	2B-i\	2.d\	.
.	.	.	.	4g/
.	2.F/	2A/	.	2a/
.	.	.	4e\	.
.	.	[2d\	[2f\	2b-i\
.	4G/	.	.	.
=81	=81	=81	=81	=81
1r	2A/	4d\]	4f\]	2a/
.	.	4c\	4e\	.
.	2D/	4B-i\	4d\	1dd
.	.	4A/	4c\	.
2r	2G/	2B-i\	[1d	.
2GG/	4F/	4A/	.	[2dd\
.	4E/	4G/	.	.
=82.	=82.	=82.	=82.	=82.
2.BB/	0D	2F/	1d]	2dd\]
.	.	1G	.	4cc\
4C/	.	.	.	4b\
1D	.	.	1d	2.a/
.	.	2F#i/	.	.
.	.	.	.	4g/
=83	=83	=83	=83	=83
1GG	1r	0G	[0d	2b\
.	.	.	.	2g/
2r	2r	.	.	2.b\
2GG/	[2D/	.	.	.
.	.	.	.	4cc\
=84.	=84.	=84.	=84.	=84.
2.BB/	2D/]	2r	0d_	2dd\
.	2.F/	2D/	.	4cc\
4C/	.	.	.	4b\
[1D	.	2.F/	.	2a/
.	4G/	.	.	.
.	2A/	.	.	[2dd\
.	.	4G/	.	.
=85	=85	=85	=85	=85
2D\]	1D	2A/	0d]	4dd\]
.	.	.	.	4cc\
2GG/	.	2.B\	.	2.b\
2.BB/	2r	.	.	.
.	.	4c\	.	4a/
.	2D/	[2d\	.	[2g/
4C/	.	.	.	.
=86.	=86.	=86.	=86.	=86.
1D	2.F/	2d\]	1r	2g/]
.	.	4c\	.	4f#i/
.	4G/	4B\	.	4e/
1D	1A	1A	1d	1f#i
=87	=87	=87	=87	=87
2GG/	2B\	[0Gl	2d\	[0g
2C/	2.G/	.	2.e\	.
2.E\	.	.	.	.
.	4F/	.	4d\	.
.	4E/	.	[2c\	.
4F\	4D/	.	.	.
=88.	=88.	=88.	=88.	=88.
2G\	2C/	0G_	2c\]	0g]
2GG/	2D/	.	2B\	.
1C	1E	.	1c	.
=89	=89	=89	=89	=89
0GGl	0Dl	0G]	0Bl	0gl
==	==	==	==	==
*-	*-	*-	*-	*-
!!!RDF**kern: l=long note in original notation
!!!RDF**kern: i=editorial accidental
!!!ENC:	Chris Gage 04-23-2013
!!!END:	2013/08/01/
!!!EED:	Jesse Rodin
!!!EEV:	2013/08/02/
!!!ONB:	Translated from MusicXML and edited on 2013/08/02/ by Craig Sapp
!!muse2ps: T^@{OPR}^u^@{ONM}{. }@{OTL}^C^@{COM}^i2I150v85,85,85,85,130Q1c180
